X: 31398
T: Paddy On The Rocks
R: jig
M: 6/8
K: Gmajor
D2|:GBG AGE|GBd edB|dBd edB|gdB AGF|
GBG AGE|GBd edB|gfg dBG|1 AGF G2D:|2 AGFG2d||
efg age|edg edB|dBd edB|gdB AGF|
efg age|edg deg|bge dBG|AGF G2d|
efg age|edg edB|dBd edB|gdB AGE|
GBG AGE|GBd edB|gfg dBG|AGF G3||

